usr/share/icons/biglinux-icons-material-dark/symbolic/actions/ephy-permission-generic-symbolic.svg

<svg width="16px" height="16px" version="1.1" viewBox="0 0 16 16" xmlns="http://www.w3.org/2000/svg">
 <path d="m11.5 1a3.5 3.5 0 0 0-3.5 3.5 3.5 3.5 0 0 0 3.5 3.5 3.5 3.5 0 0 0 3.5-3.5 3.5 3.5 0 0 0-3.5-3.5zm-0.015625 1a2.4854 2.4854 0 0 1 2.4863 2.4844 2.4854 2.4854 0 0 1-2.4863 2.4863 2.4854 2.4854 0 0 1-2.4844-2.4863 2.4854 2.4854 0 0 1 2.4844-2.4844z" fill="#dedede" stop-color="#000000" stroke-linecap="round" stroke-linejoin="round" stroke-width="3" style="paint-order:fill markers stroke"/>
 <rect x="1" y="4" width="6" height="1" rx=".5" ry=".5" fill="#dedede" opacity=".35" stop-color="#000000" stroke-linecap="round" stroke-linejoin="round" stroke-width="3" style="paint-order:fill markers stroke"/>
 <path d="m4.5 8a3.5 3.5 0 0 0-3.5 3.5 3.5 3.5 0 0 0 3.5 3.5 3.5 3.5 0 0 0 3.5-3.5 3.5 3.5 0 0 0-3.5-3.5zm-0.015625 1a2.4852 2.4852 0 0 1 2.4863 2.4844 2.4852 2.4852 0 0 1-2.4863 2.4863 2.4852 2.4852 0 0 1-2.4844-2.4863 2.4852 2.4852 0 0 1 2.4844-2.4844z" fill="#dedede" stop-color="#000000" stroke-linecap="round" stroke-linejoin="round" stroke-width="3" style="paint-order:fill markers stroke"/>
 <rect x="7" y="11" width="8" height="1" rx=".5" ry=".5" fill="#dedede" stop-color="#000000" stroke-linecap="round" stroke-linejoin="round" stroke-width="3" style="paint-order:fill markers stroke"/>
</svg>

<svg xmlns="http://www.w3.org/2000/svg" width="16" height="16">
<path fill="#dedede" d="M11.5 1A3.5 3.5 0 0 0 8 4.5 3.5 3.5 0 0 0 11.5 8 3.5 3.5 0 0 0 15 4.5 3.5 3.5 0 0 0 11.5 1m-.016 1a2.485 2.485 0 0 1 2.487 2.484 2.485 2.485 0 0 1-2.487 2.487A2.485 2.485 0 0 1 9 4.484 2.485 2.485 0 0 1 11.484 2" style="paint-order:fill markers stroke"/>
<rect width="6" height="1" x="1" y="4" fill="#dedede" opacity=".35" rx=".5" ry=".5" style="paint-order:fill markers stroke"/>
<path fill="#dedede" d="M4.5 8A3.5 3.5 0 0 0 1 11.5 3.5 3.5 0 0 0 4.5 15 3.5 3.5 0 0 0 8 11.5 3.5 3.5 0 0 0 4.5 8m-.016 1a2.485 2.485 0 0 1 2.487 2.484 2.485 2.485 0 0 1-2.487 2.487A2.485 2.485 0 0 1 2 11.484 2.485 2.485 0 0 1 4.484 9" style="paint-order:fill markers stroke"/>
<rect width="8" height="1" x="7" y="11" fill="#dedede" rx=".5" ry=".5" style="paint-order:fill markers stroke"/>
</svg>
